X:2
T:Sham Fight THO4.002
M:6/8
L:1/8
Z:vmp. Peter Dunk 2010/11.from a transcription by Fynn Titford-Mock 2007
B:Thompson's Compleat Collection of 200 Favourite Country Dances Volume IV.
Q:3/8=120
K:G
B2 B BAB|c3B3|g2 d BAG|A3 D3|B2 B BAB|c3B3|AcB AGF|G3G,3:|
|: D2 d dcB | d2 c cBA | gfe dcB | ABG FED | D2 d dcB | d2 c cBA | EcA FEF | G3G,3 :|
